X: 8386
T: Cove Of Cork, The
R: slip jig
M: 9/8
K: Adorian
d|:cBA ABG FDE|FGA ABc ~d2d|cBA ABG FDE|FGA ABc ~d2d:|
|:f2f ged cAA|def gef g2g|fga gfe fdd|cAF GAc ~d2d:|

